assets/svg/windows_10_update_reg.svg

<svg width="50" height="50" viewBox="0 0 50 50" fill="none" xmlns="http://www.w3.org/2000/svg">
<g clip-path="url(#clip0_1_7)">
<path d="M19.65 3.97997L0.900026 6.51997C0.780026 6.53997 0.660026 6.57997 0.550026 6.63997C0.430026 6.70997 0.340026 6.78997 0.250026 6.88997C0.170026 6.98997 0.100026 7.09997 0.0600261 7.21997C0.0200261 7.34997 -0.00997391 7.47997 5.65873e-05 7.60997V22.83C5.65873e-05 23.43 0.460026 23.91 1.04003 23.91H19.79C20.36 23.91 20.83 23.43 20.83 22.83V5.05997C20.83 4.72997 20.71 4.45997 20.47 4.23997C20.24 4.02997 19.96 3.93997 19.65 3.97997Z" fill="#F44336"/>
<path d="M49.64 0.280025C49.41 0.0600247 49.13 -0.0399753 48.82 2.46912e-05L23.82 3.41002C23.69 3.42002 23.57 3.46002 23.46 3.52002C23.35 3.59002 23.25 3.67002 23.17 3.77002C23.08 3.87002 23.02 3.98002 22.98 4.11002C22.93 4.23002 22.91 4.36002 22.91 4.49002V22.83C22.91 23.43 23.38 23.91 23.95 23.91H48.95C49.53 23.91 50 23.43 50 22.83V1.09002C49.99 0.760025 49.88 0.490025 49.64 0.280025Z" fill="#4CAF50"/>
<path d="M19.79 26.09H1.04003C0.460026 26.09 5.65873e-05 26.57 5.65873e-05 27.17V42.39C-0.00997391 42.52 0.0200261 42.65 0.0600261 42.77C0.100026 42.9 0.170026 43.01 0.250026 43.11C0.340026 43.21 0.430026 43.29 0.550026 43.35C0.660026 43.42 0.780026 43.46 0.900026 43.47L19.65 46.03C19.7 46.03 19.74 46.03 19.79 46.03C20.36 46.03 20.83 45.54 20.83 44.94V27.17C20.83 26.57 20.36 26.09 19.79 26.09Z" fill="#2196F3"/>
<path d="M48.95 26.09H23.95C23.38 26.09 22.91 26.57 22.91 27.17V45.51C22.91 45.64 22.93 45.77 22.98 45.89C23.02 46.02 23.08 46.13 23.17 46.23C23.25 46.33 23.35 46.41 23.46 46.47C23.57 46.54 23.69 46.58 23.82 46.59L48.82 49.99C48.86 50 48.91 50 48.95 49.99C49.53 49.99 49.99 49.51 49.99 48.91V27.17C49.99 26.57 49.53 26.09 48.95 26.09Z" fill="#FFC107"/>
<path d="M34 25C34 18.9249 29.0751 14 23 14C16.9249 14 12 18.9249 12 25C12 31.0751 16.9249 36 23 36C29.0751 36 34 31.0751 34 25Z" fill="url(#paint0_linear_1_7)"/>
<path d="M20.0596 22.8391L16.6968 23.7139C16.2813 23.8218 15.8697 23.527 15.8383 23.0991L15.584 19.6332C15.5625 19.3427 15.8899 19.1588 16.1271 19.3286L17.1244 20.0427C19.7029 17.0065 24.2228 16.4067 27.5185 18.7678C28.8196 19.6994 29.7452 20.9601 30.2634 22.3557C30.4056 22.739 30.1873 23.1618 29.7911 23.2636L28.6194 23.5653C28.2816 23.6521 27.9353 23.4712 27.8064 23.1468C27.4541 22.2595 26.8516 21.4598 26.0181 20.863C23.8799 19.3311 20.9697 19.6676 19.2303 21.5513L20.1739 22.2272C20.4111 22.397 20.3423 22.7661 20.0604 22.8395L20.0596 22.8391ZM29.3034 26.2861L25.9407 27.1609C25.6584 27.2344 25.5901 27.6035 25.8273 27.7732L26.7709 28.4491C25.0311 30.3329 22.1212 30.6693 19.9831 29.1375C19.1495 28.5406 18.5466 27.741 18.1947 26.8537C18.0658 26.5293 17.7199 26.3479 17.3818 26.4352L16.21 26.7368C15.8138 26.8386 15.5956 27.2614 15.7378 27.6447C16.256 29.0399 17.1815 30.3006 18.4826 31.2326C21.7783 33.5938 26.2982 32.9943 28.8768 29.9577L29.8741 30.6719C30.1108 30.8416 30.4382 30.6581 30.4172 30.3672L30.1628 26.9014C30.1315 26.4734 29.7198 26.1782 29.3043 26.2865L29.3034 26.2861Z" fill="white"/>
<path d="M21.0609 24.6875H22.1896V25.8125H21.0609V24.6875Z" fill="#78B9EB"/>
<path d="M21.0609 25.8124H22.1896V26.9374H21.0609V25.8124Z" fill="#006DF0"/>
<path d="M22.1896 24.6875H23.3183V25.8125H22.1896V24.6875Z" fill="#FFDA44"/>
<path d="M23.9761 23.0626L24.9343 23.6566L24.3384 24.6117L23.3801 24.0177L23.9761 23.0626Z" fill="#FF5023"/>
<path d="M22.1896 25.8124H23.3183V26.9374H22.1896V25.8124ZM23.3183 25.8124H24.447V26.9374H23.3183V25.8124Z" fill="#78B9EB"/>
<path d="M21.0609 23.5625H22.1896V24.6875H21.0609V23.5625Z" fill="#006DF0"/>
<path d="M24.9704 23.6033L24.0118 23.0094C23.9977 23.0007 23.9806 22.9979 23.9644 23.0016C23.9482 23.0054 23.9342 23.0154 23.9254 23.0295L23.3295 23.985C23.3252 23.9919 23.3223 23.9997 23.3209 24.0078C23.3196 24.0159 23.3199 24.0242 23.3217 24.0322C23.3236 24.0402 23.327 24.0477 23.3318 24.0544C23.3366 24.061 23.3427 24.0667 23.3497 24.071L24.3083 24.665C24.3153 24.6693 24.3231 24.6722 24.3312 24.6735C24.3393 24.6749 24.3476 24.6746 24.3557 24.6727C24.3637 24.6709 24.3712 24.6675 24.3779 24.6627C24.3846 24.6579 24.3903 24.6518 24.3947 24.6449L24.9905 23.6894C24.9993 23.6753 25.0021 23.6584 24.9983 23.6422C24.9946 23.6261 24.9845 23.6121 24.9704 23.6033ZM24.3212 24.5258L23.4692 23.9979L23.9988 23.1486L24.8509 23.6765L24.3212 24.5258ZM24.4488 25.75H23.3828V24.6875C23.3828 24.6709 23.3762 24.655 23.3644 24.6433C23.3527 24.6316 23.3367 24.625 23.3201 24.625H22.2541V23.5625C22.2541 23.5459 22.2475 23.53 22.2357 23.5183C22.224 23.5066 22.208 23.5 22.1914 23.5H21.0627C21.0461 23.5 21.0301 23.5066 21.0184 23.5183C21.0066 23.53 21 23.5459 21 23.5625V26.9375C21 26.954 21.0066 26.97 21.0184 26.9817C21.0301 26.9934 21.0461 27 21.0627 27H24.4488C24.4654 27 24.4814 26.9934 24.4931 26.9817C24.5049 26.97 24.5115 26.954 24.5115 26.9375V25.8125C24.5115 25.7959 24.5049 25.78 24.4931 25.7683C24.4814 25.7566 24.4654 25.75 24.4488 25.75ZM22.1287 26.875H21.1254V25.875H22.1287V26.875ZM22.1287 25.75H21.1254V24.75H22.1287V25.75ZM22.1287 24.625H21.1254V23.625H22.1287V24.625ZM23.2574 26.875H22.2541V25.875H23.2574V26.875ZM23.2574 25.75H22.2541V24.75H23.2574V25.75ZM24.3861 26.875H23.3828V25.875H24.3861V26.875Z" fill="black"/>
</g>
<defs>
<linearGradient id="paint0_linear_1_7" x1="15.2218" y1="17.2218" x2="30.7782" y2="32.7782" gradientUnits="userSpaceOnUse">
<stop stop-color="#54BDFF"/>
<stop offset="1" stop-color="#0042C7"/>
</linearGradient>
<clipPath id="clip0_1_7">
<rect width="50" height="50.0012" fill="white"/>
</clipPath>
</defs>
</svg>

<svg xmlns="http://www.w3.org/2000/svg" width="50" height="50" fill="none" viewBox="0 0 50 50"><g clip-path="url(#a)"><path fill="#f44336" d="M19.65 3.98.9 6.52c-.12.02-.24.06-.35.12a1.091 1.091 0 0 0-.49.58c-.04.13-.07.26-.06.39v15.22c0 .6.46 1.08 1.04 1.08h18.75c.57 0 1.04-.48 1.04-1.08V5.06c0-.33-.12-.6-.36-.82a.99.99 0 0 0-.82-.26"/><path fill="#4caf50" d="M49.64.28a.97.97 0 0 0-.82-.28l-25 3.41a.9.9 0 0 0-.36.11c-.11.07-.21.15-.29.25-.09.1-.15.21-.19.34-.05.12-.07.25-.07.38v18.34c0 .6.47 1.08 1.04 1.08h25c.58 0 1.05-.48 1.05-1.08V1.09c-.01-.33-.12-.6-.36-.81"/><path fill="#2196f3" d="M19.79 26.09H1.04c-.58 0-1.04.48-1.04 1.08v15.22c-.01.13.02.26.06.38a.994.994 0 0 0 .49.58c.11.07.23.11.35.12l18.75 2.56h.14c.57 0 1.04-.49 1.04-1.09V27.17c0-.6-.47-1.08-1.04-1.08"/><path fill="#ffc107" d="M48.95 26.09h-25c-.57 0-1.04.48-1.04 1.08v18.34c0 .13.02.26.07.38.04.13.1.24.19.34.08.1.18.18.29.24q.165.105.36.12l25 3.4c.04.01.09.01.13 0 .58 0 1.04-.48 1.04-1.08V27.17c0-.6-.46-1.08-1.04-1.08"/><path fill="url(#b)" d="M34 25c0-6.075-4.925-11-11-11s-11 4.925-11 11 4.925 11 11 11 11-4.925 11-11"/><path fill="#fff" d="m20.06 22.84-3.363.874a.687.687 0 0 1-.859-.615l-.254-3.466a.344.344 0 0 1 .543-.304l.997.714a7.735 7.735 0 0 1 13.14 2.313.69.69 0 0 1-.473.908l-1.172.301a.69.69 0 0 1-.813-.418 5.157 5.157 0 0 0-8.576-1.595l.944.675a.344.344 0 0 1-.114.613m9.243 3.446-3.362.875a.344.344 0 0 0-.114.612l.944.676a5.157 5.157 0 0 1-8.576-1.595.69.69 0 0 0-.813-.419l-1.172.302a.69.69 0 0 0-.472.908 7.734 7.734 0 0 0 13.139 2.313l.997.714a.344.344 0 0 0 .543-.305l-.254-3.466a.687.687 0 0 0-.859-.614"/><path fill="#78b9eb" d="M21.06 24.688h1.13v1.125h-1.13z"/><path fill="#006df0" d="M21.06 25.812h1.13v1.125h-1.13z"/><path fill="#ffda44" d="M22.19 24.688h1.128v1.125H22.19z"/><path fill="#ff5023" d="m23.976 23.063.958.594-.596.955-.958-.594z"/><path fill="#78b9eb" d="M22.19 25.812h1.128v1.125H22.19zm1.128 0h1.129v1.125h-1.129z"/><path fill="#006df0" d="M21.06 23.563h1.13v1.125h-1.13z"/><path fill="#000" d="m24.97 23.603-.958-.594a.063.063 0 0 0-.086.02l-.596.956a.06.06 0 0 0-.008.047.06.06 0 0 0 .028.039l.958.594a.063.063 0 0 0 .087-.02l.596-.956a.06.06 0 0 0-.02-.086m-.649.923-.852-.528.53-.85.852.529zm.128 1.224h-1.066v-1.062a.06.06 0 0 0-.063-.063h-1.066v-1.062a.06.06 0 0 0-.063-.063h-1.128a.063.063 0 0 0-.063.063v3.375a.06.06 0 0 0 .063.062h3.386a.063.063 0 0 0 .063-.062v-1.125a.06.06 0 0 0-.063-.063m-2.32 1.125h-1.004v-1h1.004zm0-1.125h-1.004v-1h1.004zm0-1.125h-1.004v-1h1.004zm1.128 2.25h-1.003v-1h1.003zm0-1.125h-1.003v-1h1.003zm1.13 1.125h-1.004v-1h1.003z"/></g><defs><linearGradient id="b" x1="15.222" x2="30.778" y1="17.222" y2="32.778" gradientUnits="userSpaceOnUse"><stop stop-color="#54bdff"/><stop offset="1" stop-color="#0042c7"/></linearGradient><clipPath id="a"><path fill="#fff" d="M0 0h50v50.001H0z"/></clipPath></defs></svg>
